X: 1
T:Scarce O' Tatties
M:6/8
L:1/8
Q:80
C:Trad- Arr GMB 1/95
S:Jig
K:HP
|: {g}A2e{g}efg|
{a}e2B{g}dB{d}G|
{g}A2e{g}efg|  !
{a}edB{g}A3|
{ag}a3{f}g3|
{a}fgf{g}e3|  !
{g}A2e{g}efg|
{a}edB{g}A3:| |:
aeg{ag}a2e|  !
{a}g2f{g}eA{G}A|
aeg{ag}a2e|
{a}g2f{g}e3|  !
{g}c2e{g}A{d}A{e}A|
{g}d2f{a}gfe|
{g}A2e{g}efg|  !
{a}edB{g}A3|]
aeg{ag}a2e|
{a}g2f{g}eA{G}A|  !
a2ga2e|
{a}g2f{g}e3|
{g}e2{A}e{g}A3|  !
{g}d2fe{g}c2|
{g}A2e{g}efg|
{a}edB{g}A2|]  !
{g}c2ac3|
{g}B2dc{g}A2|
{g}A2e{g}efg|  !
{a}edB{g}A2|]
